X:3
T:Snug in a Blanket
L:1/8
M:6/8
K:D
e2 f gfg | ABA g2e | faf gec | dcd f2d | \
e2 f gfg | ABA g2e | faf gec | dfe d3 :|
|: c2d eAA | eAf ecA | c2d eAA | Bcd f2e | \
c2d eAA | eAf ecA | faf gec | dfe d3 :|
